rospo-icon-theme-classic-common/24x24/places/folder-grey-documents.svg

<svg height="24" width="24" xmlns="http://www.w3.org/2000/svg"><rect height="12" opacity=".2" rx="1" width="20" x="2" y="9.5"/><path d="m2 17c0 .554.446 1 1 1h18c .554 0 1-.446 1-1v-11c0-.554-.446-1-1-1h-10v-1c0-.554-.446-1-1-1h-7c-.554 0-1 .446-1 1" fill="#727272"/><rect height="12" opacity=".2" rx="1" width="20" x="2" y="8.5"/><rect fill="#e4e4e4" height="8" rx="1" width="16" x="4" y="7"/><rect fill="#8e8e8e" height="12" rx="1" width="20" x="2" y="9"/><path d="m3 3c-.554 0-1 .446-1 1v .5c0-.554.446-1 1-1h7c .554 0 1 .446 1 1v-.5c0-.554-.446-1-1-1zm8 2v .5h10c .554 0 1 .446 1 1v-.5c0-.554-.446-1-1-1z" fill="#fff" opacity=".1"/><path d="m9.5 11c-.277 0-.5.223-.5.5v6c0 .277.223.5.5.5h5c .277 0 .5-.223.5-.5v-4.5l-2-2z" fill="#323232"/></svg>

<svg xmlns="http://www.w3.org/2000/svg" width="24" height="24" version="1">
 <rect style="opacity:0.2" width="20" height="12" x="2" y="9.5" rx="1" ry="1"/>
 <path style="fill:#727272" d="M 2,17 C 2,17.554 2.446,18 3,18 H 21 C 21.554,18 22,17.554 22,17 V 6 C 22,5.446 21.554,5 21,5 H 11 V 4 C 11,3.446 10.554,3 10,3 H 3 C 2.446,3 2,3.446 2,4"/>
 <rect style="opacity:0.2" width="20" height="12" x="2" y="8.5" rx="1" ry="1"/>
 <rect style="fill:#dcdcdc" width="16" height="8" x="4" y="7" rx="1" ry="1"/>
 <rect style="fill:#8e8e8e" width="20" height="12" x="2" y="9" rx="1" ry="1"/>
 <path style="opacity:0.1;fill:#ffffff" d="M 3,3 C 2.446,3 2,3.446 2,4 V 4.5 C 2,3.946 2.446,3.5 3,3.5 H 10 C 10.554,3.5 11,3.946 11,4.5 V 4 C 11,3.446 10.554,3 10,3 Z M 11,5 V 5.5 H 21 C 21.554,5.5 22,5.946 22,6.5 V 6 C 22,5.446 21.554,5 21,5 Z"/>
 <path style="fill:#323232" d="M 9.5,11 C 9.223,11 9,11.223 9,11.5 V 17.5 C 9,17.777 9.223,18 9.5,18 H 14.5 C 14.777,18 15,17.777 15,17.5 V 13 L 13,11 Z"/>
</svg>
